X: 044
T: Miss Ainslie's Strathspey
C: attr. John French (1753-1803)
R: strathspey
B: "John French Collection", John French ed. p.4 #4
S: http://www.heallan.com/french.asp
Z: 2012 John Chambers <jc:trillian.mit.edu>
M: C
L: 1/8
K: Gm
D | G<GG>A B>cd2 | c>Fc>A c<Fc>A | G<GG>A B>cdf | c<Fc>A {F}G2G :|
d | g>(a {ga}b>)a g<dg<b | f>(g {fg}a>)g f<cf<a | g>(a {ga}b>)a g<dg<a | f>d {d}c>A {F}G2 G ||
d | g>(a {ga}b>)a g<bd<g | f>(g {fg}a>)f c<fA<c | B>dG>d Bdg<b | f<d {d}c>A {F}G2 G |]

%%sep 2 1 500
%%sep 1 1 500

